img/logo-3.svg

<svg width="159" height="43" viewBox="0 0 159 43" fill="none" xmlns="http://www.w3.org/2000/svg">
<g clip-path="url(#clip0_343_17)">
<path d="M46.4551 26.291H57.4183V28.7459H53.4747V39.2781H50.4775V28.7459H46.5339V26.291H46.4551Z" fill="white"/>
<path d="M62.1509 29.3002C65.3846 29.3002 67.0409 30.9632 67.0409 34.9227V35.2394H59.9424C60.1791 36.8232 61.0467 37.4567 62.3086 37.4567C63.2551 37.4567 63.8072 37.0608 64.2015 36.4273L66.9621 36.5856C66.4099 38.407 64.8325 39.5157 62.3086 39.5157C59.1537 39.5157 56.9453 37.9319 56.9453 34.4475C56.9453 30.884 59.1537 29.3002 62.1509 29.3002ZM64.2015 33.4181C64.1227 32.151 63.4128 31.3591 62.1509 31.3591C60.9678 31.3591 60.1002 31.9926 59.8636 33.4181H64.2015Z" fill="white"/>
<path d="M68.7754 29.5378H71.457V31.2007C72.1669 29.9337 73.4288 29.3002 74.6908 29.3002C77.0569 29.3002 78.871 31.2007 78.871 34.3683C78.871 37.5359 77.0569 39.4365 74.6908 39.4365C73.5077 39.4365 72.4035 38.9613 71.6937 37.8527V42.9208H68.7754V29.5378ZM73.7443 37.2192C75.164 37.2192 75.9527 36.0313 75.9527 34.3683C75.9527 32.7053 75.0851 31.5175 73.7443 31.5175C72.3246 31.5175 71.5359 32.7053 71.5359 34.3683C71.5359 36.1105 72.4035 37.2192 73.7443 37.2192Z" fill="white"/>
<path d="M80.6074 29.5378H83.2891V31.2007C83.9989 29.9337 85.2609 29.3002 86.5228 29.3002C88.889 29.3002 90.703 31.2007 90.703 34.3683C90.703 37.5359 88.889 39.4365 86.5228 39.4365C85.3397 39.4365 84.2355 38.9613 83.5257 37.8527V42.9208H80.6074V29.5378ZM85.6552 37.2192C87.0749 37.2192 87.8636 36.0313 87.8636 34.3683C87.8636 32.7053 86.9961 31.5175 85.6552 31.5175C84.2355 31.5175 83.4468 32.7053 83.4468 34.3683C83.3679 36.1105 84.2355 37.2192 85.6552 37.2192Z" fill="white"/>
<path d="M102.453 29.5378V39.2781H99.693V31.8343L96.7747 39.2781H92.5156V29.5378H95.2761V36.9816L98.1944 29.5378H102.453Z" fill="white"/>
<path d="M103.874 29.5378H113.181V31.9134H109.947V39.2781H107.029V31.9134H103.795V29.5378H103.874Z" fill="white"/>
<path d="M119.174 29.3002C122.329 29.3002 124.301 31.2799 124.301 34.3683C124.301 37.4567 122.329 39.4365 119.174 39.4365C116.019 39.4365 113.969 37.4567 113.969 34.3683C113.969 31.2799 116.019 29.3002 119.174 29.3002ZM119.174 37.2192C120.594 37.2192 121.462 36.0313 121.462 34.3683C121.462 32.7053 120.594 31.5175 119.174 31.5175C117.755 31.5175 116.887 32.7053 116.887 34.3683C116.887 36.0313 117.755 37.2192 119.174 37.2192Z" fill="white"/>
<path d="M126.115 29.5378H128.797V31.2007C129.507 29.9337 130.769 29.3002 132.031 29.3002C134.397 29.3002 136.211 31.2007 136.211 34.3683C136.211 37.5359 134.397 39.4365 132.031 39.4365C130.848 39.4365 129.743 38.9613 129.034 37.8527V42.9208H126.115V29.5378ZM131.084 37.2192C132.504 37.2192 133.293 36.0313 133.293 34.3683C133.293 32.7053 132.425 31.5175 131.084 31.5175C129.664 31.5175 128.876 32.7053 128.876 34.3683C128.876 36.1105 129.664 37.2192 131.084 37.2192Z" fill="white"/>
<path d="M147.885 29.5378V39.2781H145.125V31.8343L142.206 39.2781H137.947V29.5378H140.708V36.9816L143.626 29.5378H147.885Z" fill="white"/>
<path d="M158.769 29.5378V39.2781H155.851V35.7145H154.826L152.696 39.2781H149.305L152.065 35.5562C150.488 35.1602 149.699 34.2099 149.699 32.6261C149.699 30.5672 151.119 29.5378 153.8 29.5378H158.769ZM155.851 31.7551H154.195C153.169 31.7551 152.617 32.151 152.617 32.8637C152.617 33.5764 153.169 33.9724 154.195 33.9724H155.851V31.7551Z" fill="white"/>
<path d="M0 0V14.175H16.0899V39.3573H30.208V14.175H46.2978V0H0Z" fill="white"/>
</g>
<defs>
<clipPath id="clip0_343_17">
<rect width="158.769" height="43" fill="white"/>
</clipPath>
</defs>
</svg>

<svg width="159" height="43" fill="none" xmlns="http://www.w3.org/2000/svg"><g clip-path="url(#a)" fill="#fff"><path d="M46.455 26.291h10.963v2.455h-3.943v10.532h-2.998V28.746h-3.943V26.29h-.079ZM62.15 29.3c3.235 0 4.89 1.663 4.89 5.623v.316h-7.098c.237 1.584 1.105 2.218 2.367 2.218.946 0 1.498-.396 1.892-1.03l2.761.159c-.552 1.821-2.13 2.93-4.653 2.93-3.155 0-5.364-1.584-5.364-5.069 0-3.563 2.209-5.147 5.206-5.147Zm2.051 4.118c-.078-1.267-.788-2.059-2.05-2.059-1.183 0-2.05.634-2.287 2.06H64.2ZM68.775 29.538h2.682V31.2a3.672 3.672 0 0 1 3.234-1.9c2.366 0 4.18 1.9 4.18 5.067 0 3.168-1.814 5.069-4.18 5.069-1.183 0-2.288-.476-2.997-1.584v5.068h-2.919V29.538Zm4.97 7.681c1.419 0 2.208-1.188 2.208-2.85 0-1.664-.868-2.852-2.209-2.852-1.42 0-2.208 1.188-2.208 2.851 0 1.742.867 2.851 2.208 2.851ZM80.607 29.538h2.682V31.2a3.672 3.672 0 0 1 3.234-1.9c2.366 0 4.18 1.9 4.18 5.067 0 3.168-1.814 5.069-4.18 5.069-1.183 0-2.287-.476-2.997-1.584v5.068h-2.919V29.538Zm5.048 7.681c1.42 0 2.209-1.188 2.209-2.85 0-1.664-.868-2.852-2.209-2.852-1.42 0-2.208 1.188-2.208 2.851-.08 1.742.788 2.851 2.208 2.851ZM102.453 29.538v9.74h-2.76v-7.444l-2.918 7.444h-4.26v-9.74h2.761v7.444l2.918-7.444h4.259ZM103.874 29.538h9.307v2.375h-3.234v7.365h-2.918v-7.365h-3.234v-2.375h.079ZM119.174 29.3c3.155 0 5.127 1.98 5.127 5.068 0 3.089-1.972 5.069-5.127 5.069s-5.205-1.98-5.205-5.069c0-3.088 2.05-5.068 5.205-5.068Zm0 7.92c1.42 0 2.288-1.189 2.288-2.852 0-1.663-.868-2.85-2.288-2.85-1.419 0-2.287 1.187-2.287 2.85s.868 2.851 2.287 2.851ZM126.115 29.538h2.682V31.2a3.672 3.672 0 0 1 3.234-1.9c2.366 0 4.18 1.9 4.18 5.067 0 3.168-1.814 5.069-4.18 5.069-1.183 0-2.288-.476-2.997-1.584v5.068h-2.919V29.538Zm4.969 7.681c1.42 0 2.209-1.188 2.209-2.85 0-1.664-.868-2.852-2.209-2.852-1.42 0-2.208 1.188-2.208 2.851 0 1.742.788 2.851 2.208 2.851ZM147.885 29.538v9.74h-2.76v-7.444l-2.919 7.444h-4.259v-9.74h2.761v7.444l2.918-7.444h4.259ZM158.769 29.538v9.74h-2.918v-3.563h-1.025l-2.13 3.563h-3.391l2.76-3.722c-1.577-.396-2.366-1.346-2.366-2.93 0-2.059 1.42-3.088 4.101-3.088h4.969Zm-2.918 2.217h-1.656c-1.026 0-1.578.396-1.578 1.109 0 .712.552 1.108 1.578 1.108h1.656v-2.217ZM0 0v14.175h16.09v25.182h14.118V14.175h16.09V0H0Z"/></g><defs><clipPath id="a"><path fill="#fff" d="M0 0h158.769v43H0z"/></clipPath></defs></svg>
